X: 26858
T: Miner's Fancy
R: reel
M: 4/4
K: Dmajor
A>F|D>FA>c d2 f>d|c>de>f g2 g>e|f>a f>d e>gf>d|
e>dc>B A2 A>F|D>FA>c d2 f>d|c>de>f g2 f>g|
a>fd>f g>ed>c|d2 D2 D2:|:e>f|g>fg>a g>fg>a|
f2 b2 b>ag>f|e>fg>f e>fg>e|a2 a2 a>g >fe|
d>cd>e d2 f>d|c>de>f g2 f>g|a>fd>f g>ed>c|d2 D2 D2:|

